src/shared/icons/icon-close.svg

<svg xmlns="http://www.w3.org/2000/svg" xmlns:xlink="http://www.w3.org/1999/xlink" version="1.1" viewBox="10.694709 1.8159605 9.8530178 9.8530188">
<rect id="icon-close-clickable" x="9.70940722" y="0.8306586200000003" width="11.823621359999999" height="11.823622559999999" fill="transparent" fill-opacity="0" stroke-dasharray="0.0452804, 0.18112" stroke-width="0.0279995" style="display:inline;mix-blend-mode:normal;stroke-miterlimit:4.1" xmlns:inkscape="http://www.inkscape.org/namespaces/inkscape" inkscape:label="icon-close-clickable" class="bg-item bg" xmlns="http://www.w3.org/2000/svg"/>
<text x="15.562188" y="10.442361" fill="white" stroke-width="0.105981" text-align="center" style="font-weight:bold;font-size:1.05771px;line-height:1.2;font-family:'Devanagari Sangam MN';letter-spacing:0.0698125px;word-spacing:0.00396651px;text-anchor:middle;fill:#ffffff;fill-opacity:1;stroke:none;stroke-linecap:round;stroke-miterlimit:4.1" xml:space="preserve" id="text42" fill-opacity="1" class="fg" xmlns="http://www.w3.org/2000/svg"><tspan x="15.597094" y="10.442361" fill="white" font-size="1.05771px" stroke-width="0.105981" id="tspan42" style="fill:#ffffff;fill-opacity:1;stroke:none" fill-opacity="1" class="fg">CLOSE</tspan></text>
<path id="circle42" style="fill:#ffffff;stroke-width:0.389223;stroke-miterlimit:4.1" d="M 15.632024,2.712248 A 2.7767174,2.7767174 0 0 0 12.85545,5.4888227 2.7767174,2.7767174 0 0 0 15.632024,8.2659142 2.7767174,2.7767174 0 0 0 18.408599,5.4888227 2.7767174,2.7767174 0 0 0 15.632024,2.712248 Z m -1.112593,1.3580566 a 0.30899999,0.30899999 0 0 1 0.219108,0.091984 l 0.893485,0.8903849 0.893486,-0.8903849 a 0.30899999,0.30899999 0 0 1 0.218591,-0.091984 0.30899999,0.30899999 0 0 1 0.218591,0.091984 0.30899999,0.30899999 0 0 1 0,0.4371826 l -0.892452,0.8898682 0.892452,0.8893514 a 0.30899999,0.30899999 0 0 1 0,0.4376993 0.30899999,0.30899999 0 0 1 -0.437182,0 L 15.632541,5.9254885 14.738539,6.8163902 a 0.30899999,0.30899999 0 0 1 -0.4377,0 0.30899999,0.30899999 0 0 1 0,-0.4376993 L 15.194325,5.4888227 14.302906,4.5994713 a 0.30899999,0.30899999 0 0 1 -0.0021,-0.4371826 0.30899999,0.30899999 0 0 1 0.218592,-0.091984 z" fill="white" fill-opacity="1" class="fg" xmlns="http://www.w3.org/2000/svg"/>
</svg>

<svg xmlns="http://www.w3.org/2000/svg" xmlns:xlink="http://www.w3.org/1999/xlink" version="1.1" viewBox="10.695 1.816 9.853 9.853">
<rect id="icon-close-clickable" x="9.709700000000002" y="0.8307000000000004" width="11.823599999999999" height="11.823599999999999" fill="transparent" rx="10" fill-opacity="0" stroke-dasharray="0.0452804, 0.18112" stroke-width=".028" style="mix-blend-mode:normal" class="bg-item bg" xmlns="http://www.w3.org/2000/svg"/>
<text x="15.562188" y="10.442361" fill="white" font-family="'Devanagari Sangam MN'" font-size="1.0577px" font-weight="bold" letter-spacing=".069812px" stroke-linecap="round" stroke-width=".10598" text-align="center" text-anchor="middle" word-spacing=".0039665px" style="line-height:1.2" xml:space="preserve" fill-opacity="1" class="fg" xmlns="http://www.w3.org/2000/svg"><tspan x="15.597094" y="10.442361" fill="white" font-size="1.0577px" stroke-width=".10598" fill-opacity="1" class="fg">CLOSE</tspan></text>
<path d="m15.632 2.7122a2.7767 2.7767 0 0 0-2.7766 2.7766 2.7767 2.7767 0 0 0 2.7766 2.7771 2.7767 2.7767 0 0 0 2.7766-2.7771 2.7767 2.7767 0 0 0-2.7766-2.7766zm-1.1126 1.3581a0.309 0.309 0 0 1 0.21911 0.091984l0.89348 0.89038 0.89349-0.89038a0.309 0.309 0 0 1 0.21859-0.091984 0.309 0.309 0 0 1 0.21859 0.091984 0.309 0.309 0 0 1 0 0.43718l-0.89245 0.88987 0.89245 0.88935a0.309 0.309 0 0 1 0 0.4377 0.309 0.309 0 0 1-0.43718 0l-0.89297-0.8909-0.894 0.8909a0.309 0.309 0 0 1-0.4377 0 0.309 0.309 0 0 1 0-0.4377l0.89349-0.88987-0.89142-0.88935a0.309 0.309 0 0 1-0.002067-0.43718 0.309 0.309 0 0 1 0.21859-0.091984z" fill="white" stroke-width=".38922" fill-opacity="1" class="fg" xmlns="http://www.w3.org/2000/svg"/>
</svg>
